X:9526
T:Les moutons
R:Bourrée à 2 temps
C:trad
A:Limousin
O:France
Z:S. Piron
M:2/4
L:1/8
Q:1/8=240
K:C
g>f ec|d>f ef|g>f ec|1d2e2:|2d>f e2|
|:e>f e^d|ec A2|d>B cA|d>B cA|e>f e^d|ec A2|d>B cA|dB c2:|


